X:1
T:Jungfräulein gehn auch
T:Antonio Brunelli
T:Source ; Tricinia---Johann-Jacob Gastoldi und anderer Autorn---Nürnberg---P.Kauffmann---1607. Editor : André Vierendeels  (21/03/17).
T:Notes : Original clefs : C1, C1, F4 Editorial accidentals above the staff Text Middle German by Valentin Hauszmann Sub-heading ; from "Affettuoso Invaghito"  
T:Jungfräulein gehn auch
T:©
T:©
C:Antonio Brunelli
Z:©
%%score [ 1 2 3 ]
L:1/8
Q:1/4=120
M:4/4
K:F
V:1 treble nm="Soprano 1" snm="S 1"
V:2 treble nm="Soprano 2" snm="S 2"
V:3 bass nm="Bass" snm="B"
V:1
"^1)" A8- | A4 G4 | A8 | z2 AA G3 F | E3 E ^F4 |"^-natural" F2 dd c3 B | A3 A G4 |[M:2/4] G4 :: %8
w: Jung-|* fräu-|lein,|gehn euch denn gar|nicht zu her-|zen, gehn euch denn gar|nicht zu her-|zen,|
w: Jung-|* fräu-|lein,|wolt ihr nicht er-|wiegn den schmer-|zen, wolt ihr nicht er-|wiegn den schmer-|zen,|
[M:4/4] z4 d2 dd | B6 A2 | B2 c2 d3 c | d4 c4 | z4 B2 c2 | d2 cB c4 | d8 | d2 d2 d2 BB | %16
w: die flam- men,|so mich|duch das feur der|Lie- be,|eu- rent|hal- ben be- trü-|ben,|eu- rent hal- ben be-|
w: denn al- le|tag, all|au- gen- blick und|stun- den,|ich durch|euch bin ver- bun-|den,|ich durch euch bin ver-|
 A4 !fermata!G4 :| %17
w: trü- ben?|
w: bun- den?|
V:2
"^2)""^1)" F8- | F4 D4 | E8 | z2 FF E3 D | ^C3 C D4 | D2 FF E3 G | ^F3 F G4 |[M:2/4] G4 :: %8
w: Jung-|* fräu-|lein,|gehn euch denn gar|nicht zu her-|zen, gehn euch denn gar|nicht zu her-|zen,|
w: Jun-|* fräu-|lein,|war- umb seyt ihr|so un- mil-|de, war- umb seyt ihr|so un- mil-|de?|
[M:4/4] B2 BB G4- | G4 ^F4 |"^-natural" G2 ^F2 B2 G2 | A2 B4 A2 | d2 c2 B2 AG | A2 B4 A2 | %14
w: die flam- men, so|_ mich|durch das feur der|Lie- * *|be, eu- rent hal- ben|be- trü- *|
w: Be- tracht ihr nicht,|_ wie|mich thut Lieb er-|blei- * *|chen, ich seh gleich ei-|ner Lei- *|
 B4 B2 B2 | G2 DE ^F2 G2- | G2 ^F2 !fermata!G4 :| %17
w: ben, eu- rent|hal- ben be- trü- *|* * ben?|
w: chen, ich seh|gleich ei- ner Lei- *|* * chen.|
V:3
"^3)""^1)""^4)" D,8 | B,,8 | A,,8 | z2 F,,F,, G,,2 G,,2 | A,,3 A,, D,4 | D,2 B,,B,, C,2 C,2 | %6
w: Jung-|fräu-|lein,|gehn euch denn gar|nicht zu her-|zen, gehn euch denn gar|
w: Jung-|fräu-|lein,|O ihr un- barm-|hert- zigs Bil-|de, O ihr un- barm-|
 D,3 D, G,,4 |[M:2/4] G,,4 ::[M:4/4] G,2 G,G, G,4- | G,4 D,4 | G,2 A,2 B,2 _E,2 | F,4 F,4 | %12
w: nicht zu her-|zen,|die flam- men, so|_ mich|durch das feur der|Lie- be,|
w: hert- zigs Bil-|de,|wenn ihr meins Hert-|* zen|seuff- tzen thut ver-|stos- sen,|
 B,2 A,2 G,2 F,_E, | F,8 | B,,4 G,,2 G,,2 | =B,,2 B,,C, D,4- | D,4 !fermata!G,,4 :| %17
w: eu- rent hal- ben be-|trü-|ben, eu- rent|hal- ben be- trü-|* ben?|
w: so bin ich gar ver-|las-|sen, so bin|ich gar ver- las-|* sen.|

